!!!!SEGMENT: pl-wtm--iii-41-976--013_kurpinski-karol-kazimierz--wesele-w-ojcowie-tema.krn
!!!cenid: 18xx:4265
!!!COM: Kurpiński, Karol Kazimierz
!!!COM-rismID: pe30018952
!!!CDT: 1785/03/06-1857/09/18
!!!CNT: Polish
!!!GTL: Wesele w Ojcowie
!!!OTL: Tema
!!!PDT:
!!!AGN:
!!!SMS-siglum: PL-Wtm
!!!SMS-shelfmark: III.41.976
!!!SMS-shelfwork: 013 G
!!!SMS-variant:
!!!SMS-altvar:
!!!NIFC-rismSourceID: 1001130735
!!!NIFC-rismChildID: 1001130735
!!!NIFC-islandoraID: pl-wtm:23143
!!!URL-pdf-islandora: https://repozytorium.nifc.pl/islandora/object/pl-wtm:23143/datastream/PDF/view
!!!URL-scan: https://polish.musicsources.pl/pl/lokalizacje/galeria/druki-muzyczne/17811/13 @EN{Scan on Polish Music Sources Website} @PL{Skany w portalu Dziedzictwo Muzyki Polskiej w otwartym dostępie}
!!!ONB-nifc: UWAGA: skany 13-15 (temat z Wariacjami i kodą)
!!!OMD: Allegro
!!!AIN: 2 piano
!!!key: C
**kern	**kern	**dynam
*part2	*part1	*part1
*staff2	*staff1	*
*I"[FORTEPIAN]	*I"[FORTEPIAN]	*
*I'	*I'	*
*Ipiano	*Ipiano	*
*ICklav	*ICklav	*
*clefF4	*clefG2	*
*k[]	*k[]	*
*C:	*C:	*
*M2/4	*M2/4	*
*>[A,A,B,B,C,D,D,E,F,F,G]	*>[A,A,B,B,C,D,D,E,F,F,G]	*
=1	=1	=1
*>A	*>A	*>A
!	!LO:TX:a:B:t=TEMA	!LO:DY:b:rj
8GG\L	8b'\L	p
8f 8B 8G\	8dd'\	.
8f 8B 8G\	8ff'\	.
8fJ 8B 8G\	8aa'\J	.
=2	=2	=2
8C\L	(16aa\LL	.
.	16gg\JJ)	.
8e 8c 8G\	4ee^\	.
8e 8c 8G\	.	.
8eJ 8c 8G\	([8gg\	.
=3	=3	=3
8BB\L	8gg\L]	.
8f 8B 8G\	8ff#X\	.
8f 8B 8G\	8ffn\	.
8fJ 8B 8G\	8dd\J)	.
!!LO:LB:g=original
=4	=4	=4
8C\L	(16cc\LL	.
.	16dd\JJ)	.
8e 8c 8G\	4ee\	.
8e 8c 8G\	.	.
8eJ 8c 8G\	8cc\	.
=5	=5	=5
8GG\L	8bL 8g'\	.
8fJ 8B 8G\	8dd 8b'\	.
8BB\L	8ff 8dd'\	.
8fJ 8B 8G\	8aaJ 8ff'\	.
=6	=6	=6
8C\L	(16aaLL 16ff\	.
.	16ggJJ 16ee\)	.
8e 8c 8G\	4ee^ 4cc\	.
8e 8c 8G\	.	.
8eJ 8c 8G\	[8gg\	.
=7	=7	=7
8BB\L	(16gg\LL]	.
.	16ff#X\	.
8fJ 8B 8G\	16aa\	.
.	16gg\JJ	.
8GG\L	16ffn\LL	.
.	16ee\	.
8fJ 8B 8G\	16ff\	.
.	16dd\JJ)	.
=8	=8	=8
8eL 8c\	8cc\L	.
8cJ 8G 8C\	8eeJ 8g\	.
4c 4G 4C\	4cc 4e\	.
!!LO:LB:g=original
=9:|!	=9:|!	=9:|!
*>B	*>B	*>B
!	!	!LO:DY:b:rj
8C\L	8ff'\L	p
8f 8c 8A\	8aa'\	.
8f 8c 8A\	8ccc 8aa'\	.
8fJ 8c 8A\	8aaJ 8ff'\	.
=10	=10	=10
8C\L	(16aaLL 16ff\	.
.	16ggJJ 16ee\)	.
8e 8c 8G\	4ee 4cc^\	.
8e 8c 8G\	.	.
8eJ 8c 8G\	[8gg\	.
=11	=11	=11
8BB\L	(16gg\LL]	.
.	16ff#X\	.
8f 8B 8G\	16aa\	.
.	16gg\JJ	.
8f 8B 8G\	16ffn\LL	.
.	16ee\	.
8fJ 8B 8G\	16ff\	.
.	16dd\JJ)	.
=12	=12	=12
8C\L	8cc'\	.
8e 8c 8G\	(4ee 4cc^\	.
8e 8c 8G\	.	.
8eJ 8c 8G\	8gg\)	.
!!LO:LB:g=original
=13	=13	=13
!	!	!LO:DY:b:rj
8CL 8CC\	8ff'\L	f
8fJ 8c 8A\	8aa 8ff'\	.
8C\L	8ccc 8aa'\	.
8fJ 8c 8A\	8aaJ 8ff'\	.
=14	=14	=14
8C\L	(16aaLL 16ff\	.
.	16ggJJ 16ee\)	.
8e 8c 8G\	4ee 4cc^\	.
8e 8c 8G\	.	.
8eJ 8c 8G\	[8gg\	.
=15	=15	=15
8BB\L	(16gg\LL]	.
.	16ff#X\	.
8fJ 8B 8G\	16aa\	.
.	16gg\JJ	.
8GG\L	16ffn\LL	.
.	16ee\	.
8fJ 8B 8G\	16ff\	.
.	16dd\JJ)	.
=16	=16	=16
8eL 8c\	8cc\L	.
8cJ 8G 8C\	8eeJ 8g\	.
4c 4G 4C\	4cc 4e\	.
!!LO:LB:g=original
=17:|!	=17:|!	=17:|!
*>C	*>C	*>C
!	!LO:TX:a:B:t=CODA	!LO:DY:b:rj
8G 8GG\	(16g'\LL	f
.	16a'\	.
4f 4B 4G\	16b'\	.
.	16cc'\JJ	.
.	16dd'\LL	.
.	16ee'\	.
8B 8BB\	16ff'\	.
.	16dd'\JJ)	.
=18	=18	=18
8cL 8C\	(16.ee\LL	.
.	32gg\K)	.
8G 8GG\	(16.ff\	.
.	32ee\JJk)	.
8E 8EE\	(16.dd\LL	.
.	32cc\K)	.
8CJ 8CC\	(16.b\	.
.	32cc\JJk)	.
=19	=19	=19
*	*^	*
8FL 8FF\	(<16.dd/LL	4a\	.
.	32ee/K)	.	.
8dJ 8A 8F\	(<16.ff/	.	.
.	32dd/JJk)	.	.
8GL 8GG\	(<16.b/LL	4f\	.
.	32cc/K)	.	.
8BJ 8G 8F\	(<16.dd/	.	.
.	32b/JJk)	.	.
*	*v	*v	*
=20	=20	=20
8cL 8G 8C\	8ccL 8e\	.
8cJ 8G 8C\	8eeJ 8g\	.
4c 4G 4C\	4cc 4e\	.
!!LO:PB:g=original
==21||	==21||	==21
*	*^	*
*	*	*Xtuplet	*
*M2/4	*M2/4	*M2/4	*
!	!LO:TX:a:B:t=VAR 1.	!	!
!	!LO:TX:a:t=La melodia ben marcata	!	!LO:DY:b:rj
8GG\L	8b/L	24b\LL	p
.	.	24g\	.
.	.	24g\JJ	.
8f 8B 8G\	8dd/	24dd\LL	.
.	.	24g\	.
.	.	24g\JJ	.
8f 8B 8G\	8ff/	24dd\LL	.
.	.	24g\	.
.	.	24g\JJ	.
8fJ 8B 8G\	8aa/J	24ff\LL	.
.	.	24g\	.
.	.	24g\JJ	.
=22	=22	=22	=22
8C\L	8gg/L	24ee\LL	.
.	.	24g\	.
.	.	24g\JJ	.
8e 8c 8G\	8ee/	24cc\LL	.
.	.	24g\	.
.	.	24g\JJ	.
8c 8G\	8cc/	24ccLL 24e\	.
.	.	24g\	.
.	.	24g\JJ	.
8eJ 8c 8G\	8ee/J	24cc\LL	.
.	.	24g\	.
.	.	24g\JJ	.
=23	=23	=23	=23
8GG\L	8ff/L	24dd\LL	.
.	.	24g\	.
.	.	24g\JJ	.
8f 8B 8G\	8dd/	24b\LL	.
.	.	24g\	.
.	.	24g\JJ	.
8d 8G\	8b/	24f\LL	.
.	.	24g\	.
.	.	24g\JJ	.
8fJ 8B 8G\	8dd/J	24b\LL	.
.	.	24g\	.
.	.	24g\JJ	.
!!LO:LB:g=original
=24	=24	=24	=24
8C\L	8cc/L	24e\LL	.
.	.	24g\	.
.	.	24g\JJ	.
8e 8c 8G\	8ee/	24cc\LL	.
.	.	24g\	.
.	.	24g\JJ	.
8e 8c 8G\	8gg/	24ee\LL	.
.	.	24g\	.
.	.	24g\JJ	.
8eJ 8c 8G\	8ee/J	24cc\LL	.
.	.	24g\	.
.	.	24g\JJ	.
=25	=25	=25	=25
8GG\L	8b/L	24b\LL	.
.	.	24g\	.
.	.	24g\JJ	.
8f 8B 8G\	8dd/	24dd\LL	.
.	.	24g\	.
.	.	24g\JJ	.
8f 8B 8G\	8ff/	24dd\LL	.
.	.	24g\	.
.	.	24g\JJ	.
8fJ 8B 8G\	8aa/J	24ff\LL	.
.	.	24g\	.
.	.	24g\JJ	.
=26	=26	=26	=26
8C\L	8gg/L	24ee\LL	.
.	.	24g\	.
.	.	24g\JJ	.
8e 8c 8G\	8ee/	24cc\LL	.
.	.	24g\	.
.	.	24g\JJ	.
8c 8G\	8cc/	24e\LL	.
.	.	24g\	.
.	.	24g\JJ	.
8eJ 8c 8G\	8ee/J	24cc\LL	.
.	.	24g\	.
.	.	24g\JJ	.
=27	=27	=27	=27
8GG\L	8ff/L	24dd\LL	.
.	.	24g\	.
.	.	24g\JJ	.
8f 8B 8G\	8dd/	24b\LL	.
.	.	24g\	.
.	.	24g\JJ	.
8d 8G\	8b/	24f\LL	.
.	.	24g\	.
.	.	24g\JJ	.
8fJ 8B 8G\	8dd/J	24b\LL	.
.	.	24g\	.
.	.	24g\JJ	.
=28	=28	=28	=28
8cL 8G 8C\	8cc/L	24e\LL	.
.	.	24g\	.
.	.	24g\JJ	.
8cJ 8G 8C\	8ee/J	24cc\LL	.
.	.	24g\	.
.	.	24g\JJ	.
4c 4G 4C\	4cc/	4e\	.
!!LO:LB:g=original
==29	==29	==29	=29||
8C\L	8ff/L	24a\LL	.
.	.	24cc\	.
.	.	24cc\JJ	.
8f 8c 8A\	8aa/	24ff\LL	.
.	.	24cc\	.
.	.	24cc\JJ	.
8f 8c 8A\	8ccc/	24aa\LL	.
.	.	24cc\	.
.	.	24cc\JJ	.
8fJ 8c 8A\	8aa/J	24ff\LL	.
.	.	24cc\	.
.	.	24cc\JJ	.
=30	=30	=30	=30
8C\L	8gg/L	24ee\LL	.
.	.	24g\	.
.	.	24g\JJ	.
8e 8c 8G\	8ee/	24cc\LL	.
.	.	24g\	.
.	.	24g\JJ	.
8c 8G\	8cc/	24e\LL	.
.	.	24g\	.
.	.	24g\JJ	.
8eJ 8c 8G\	8ee/J	24cc\LL	.
.	.	24g\	.
.	.	24g\JJ	.
=31	=31	=31	=31
8GG\L	8ff/L	24dd\LL	.
.	.	24g\	.
.	.	24g\JJ	.
8f 8B 8G\	8dd/	24b\LL	.
.	.	24g\	.
.	.	24g\JJ	.
8d 8G\	8b/	24f\LL	.
.	.	24g\	.
.	.	24g\JJ	.
8BJ 8G\	8dd/J	24f\LL	.
.	.	24g\	.
.	.	24g\JJ	.
=32	=32	=32	=32
8C\L	8cc/L	24e\LL	.
.	.	24g\	.
.	.	24g\JJ	.
8e 8c 8G\	8ee/	24cc\LL	.
.	.	24g\	.
.	.	24g\JJ	.
8e 8c 8G\	8gg/	24ee\LL	.
.	.	24g\	.
.	.	24g\JJ	.
8eJ 8c 8G\	8ee/J	24cc\LL	.
.	.	24g\	.
.	.	24g\JJ	.
!!LO:LB:g=original
=33	=33	=33	=33
8C\L	8ff/L	24a\LL	.
.	.	24cc\	.
.	.	24cc\JJ	.
8f 8c 8A\	8aa/	24ff\LL	.
.	.	24cc\	.
.	.	24cc\JJ	.
8f 8c 8A\	8ccc/	24aa\LL	.
.	.	24cc\	.
.	.	24cc\JJ	.
8fJ 8c 8A\	8aa/J	24ff\LL	.
.	.	24cc\	.
.	.	24cc\JJ	.
=34	=34	=34	=34
8C\L	8gg/L	24ee\LL	.
.	.	24g\	.
.	.	24g\JJ	.
8e 8c 8G\	8ee/	24cc\LL	.
.	.	24g\	.
.	.	24g\JJ	.
8c 8G\	8cc/	24e\LL	.
.	.	24g\	.
.	.	24g\JJ	.
8eJ 8c 8G\	8ee/J	24cc\LL	.
.	.	24g\	.
.	.	24g\JJ	.
=35	=35	=35	=35
8GG\L	8ff/L	24dd\LL	.
.	.	24g\	.
.	.	24g\JJ	.
8f 8B 8G\	8dd/	24b\LL	.
.	.	24g\	.
.	.	24g\JJ	.
8d 8G\	8b/	24f\LL	.
.	.	24g\	.
.	.	24g\JJ	.
8BJ 8G\	8dd/J	24f\LL	.
.	.	24g\	.
.	.	24g\JJ	.
=36	=36	=36	=36
8C\L	8cc/L	24e\LL	.
.	.	24g\	.
.	.	24g\JJ	.
8eJ 8c 8G\	8ee/J	24cc\LL	.
.	.	24g\	.
.	.	24g\JJ	.
4c 4G 4C\	4cc/	4e\	.
*	*v	*v	*
!!LO:LB:g=original
==37	==37	==37
!	!	!LO:DY:b:rj
8G 8GG\	(16g'\LL	f
.	16a'\	.
4f 4B 4G\	16b'\	.
.	16cc'\JJ	.
.	16dd'\LL	.
.	16ee'\	.
8B 8BB\	16ff'\	.
.	16dd'\JJ)	.
=38	=38	=38
8cL 8C\	(16.ee\LL	.
.	32gg\K)	.
8GJ 8GG\	(16.ff\	.
.	32ee\JJk)	.
8EL 8EE/	(16.dd\LL	.
.	32cc\K)	.
8CJ 8CC/	(16.b\	.
.	32cc\JJk)	.
=39	=39	=39
*	*^	*
8FL 8FF\	(<16.dd/LL	4a\	.
.	32ee/K)	.	.
8dJ 8A 8F\	(<16.ff/	.	.
.	32dd/JJk)	.	.
8GL 8GG\	(<16.b/LL	4f\	.
.	32cc/K)	.	.
8BJ 8G 8F\	(<16.dd/	.	.
.	32b/JJk)	.	.
*	*v	*v	*
=40	=40	=40
8cL 8G 8C\	8ccL 8e\	.
8cJ 8G 8C\	8eeJ 8g\	.
4c 4G 4C\	4cc 4e\	.
!!LO:PB:g=original
==41	==41	==41
*>D	*>D	*>D
*M2/4	*M2/4	*
!	!LO:TX:a:B:t=VAR.2.	!LO:DY:b:rj
8GG\L	(16.b\LL	p
!	!LO:TX:b:i:t=con delicatezza	!
.	32cc\K	.
8fJ 8B 8G\	16.dd\	.
.	32ee\JJk	.
.	(<8qgg/	.
8r	16.ff\LL)	.
.	32ee\K	.
8f 8B 8G\	16.ff\	.
.	32aa\JJk)	.
=42	=42	=42
8C\L	(16.gg\LL	.
.	32ee\K	.
8eJ 8c 8G\	16.ccc\	.
.	32bb\JJk	.
.	(<8qbb/	.
8r	16.aa\LL)	.
.	32gg\K	.
.	(<8qgg/	.
8e 8c 8G\	16.ff\)	.
.	32ee\JJk)	.
=43	=43	=43
8BB\L	(16gg\LL	.
.	16ff#X\	.
8fJ 8B 8G\	16ffn\	.
.	16ee\JJ)	.
8r	(16gg\LL	.
.	16ff\	.
8f 8B 8G\	16dd\	.
.	16b\JJ)	.
!!LO:LB:g=original
=44	=44	=44
*	*tuplet	*
!	!LO:TUP:a	!
8C\L	24cc`\LL	.
.	(24eee\	.
.	24ddd\	.
8eJ 8c 8G\	24ccc\	.
.	24bb\	.
.	24aa\JJ	.
!	!LO:TUP:a	!
8r	24gg\LL	.
.	24ff#X\	.
.	24aa\	.
8c 8G 8E 8C\	24gg\	.
.	24ee\	.
.	24cc\JJ)	.
=45	=45	=45
8GG\L	((16.b\LL	.
.	32cc\K)	.
8fJ 8B 8G\	(16.dd\	.
.	32ee\JJk)	.
.	(<8qgg/	.
8r	(16.ff\LL)	.
.	32ee\K)	.
8f 8B 8G\	(16.ff\	.
.	32aa\JJk))	.
=46	=46	=46
8C\L	((16.gg\LL	.
.	32ee\K)	.
8eJ 8c 8G\	(16.ccc\	.
.	32bb\JJk)	.
*	*Xtuplet	*
8r	(24bb\LL	.
.	24aa\	.
.	24gg\JJ)	.
8e 8c 8G\	(24gg\LL	.
.	24ff\	.
.	24ee\JJ))	.
=47	=47	=47
8BB\L	(16gg\LL	.
.	16ff#X\	.
8fJ 8B 8G\	16aa\	.
.	16gg\JJ)	.
.	(>8qgg/	.
!	!LO:TX:t=P:problem:kasownik przed przednutką	!
8r	(16ffn\LL)	.
.	16ee\	.
8f 8B 8G\	16ff\	.
.	16dd\JJ)	.
=48	=48	=48
8eL 8c\	(24cc\LL	.
.	24ee\	.
.	24dd\JJ	.
8c 8G 8E 8C\	24cc\LL	.
.	24ee\	.
.	24gg\JJ	.
8cJ 8G 8E 8C\	8ccc 8cc\)	.
8r	8r	.
!!LO:LB:g=original
=49:|!	=49:|!	=49:|!
*>E	*>E	*>E
8C\L	((16.ff\LL	.
.	32gg\K)	.
8fJ 8c 8A\	(16.aa\	.
.	32bb\JJk)	.
.	(<8qddd/	.
8r	(16.ccc\LL)	.
.	32bb\K)	.
8f 8c 8A\	(16.ccc\	.
.	32aa\JJk))	.
=50	=50	=50
8C\L	((16.gg\LL	.
.	32ccc\K)	.
8eJ 8c 8G\	(16.eee\	.
.	32ddd\JJk)	.
8r	(16.ccc\LL	.
.	32bb\K)	.
8e 8c 8G\	(16.aa\	.
.	32gg\JJk))	.
=51	=51	=51
*	*tuplet	*
!	!LO:TUP:a	!
8BB\L	(24gg\LL	.
.	24ff#X\	.
.	24aa\	.
8fJ 8B 8G\	24gg\	.
.	24ffn\	.
.	24dd\JJ	.
!	!LO:TUP:a	!
8r	24b\LL	.
.	24a\	.
.	24b\	.
8f 8B 8G\	24aa\	.
.	24gg\	.
.	24ff\JJ)	.
=52	=52	=52
*	*Xtuplet	*
8eL 8c\	(24ee\LL	.
.	24dd\	.
.	24ee\	.
8fJ 8A\	24ff\	.
.	24ee\	.
.	24ff\JJ	.
8cL 8E\	24gg\LL	.
.	24cc\	.
.	24b\	.
8cJ 8G 8E 8C\	24cc\	.
.	24dd\	.
.	24ee\JJ)	.
!!LO:LB:g=original
=53	=53	=53
8CL 8CC\	((16.ff\LL	.
.	32gg\K)	.
8fJ 8c 8A\	(16.aa\	.
.	32bb\JJk)	.
.	(<8qddd/	.
8r	(16.ccc\LL)	.
.	32bb\K)	.
8f 8c 8A\	(16.ccc\	.
.	32aa\JJk))	.
=54	=54	=54
8CL 8CC\	((16.gg\LL	.
.	32ccc\K)	.
8eJ 8c 8G\	(16.eee\	.
.	32ddd\JJk)	.
8r	(16.ccc\LL	.
.	32bb\K)	.
8e 8c 8G\	(16.aa\	.
.	32gg\JJk))	.
=55	=55	=55
8GG\L	(24gg\LL	.
.	24bb\	.
.	24aa\	.
8fJ 8B 8G\	24gg\	.
.	24ff\	.
.	24dd\JJ)	.
8r	(24b/LL	.
.	24g/	.
.	24f/	.
8F 8D 8GG\	24d/	.
.	24B/	.
.	24G/JJ)	.
=56	=56	=56
8E 8C\	(24c\LL	.
.	24e\	.
.	24g\JJ	.
8r	24cc\LL	.
.	24ee\	.
.	24gg\JJ)	.
8c 8G 8E 8C\	8ccc\	.
8r	8r	.
!!LO:LB:g=original
==57	==57	==57
!	!	!LO:DY:b:rj
8G 8GG\	(16g'\LL	f
.	16a'\	.
4f 4B 4G\	16b'\	.
.	16cc'\JJ	.
.	16dd'\LL	.
.	16ee'\	.
8B 8BB\	16ff'\)	.
.	16dd'\JJ	.
=58	=58	=58
8cL 8C\	(16.ee\LL	.
.	32gg\K)	.
8G 8GG\	(16.ff\	.
.	32ee\JJk)	.
8E 8EE\	(16.dd\LL	.
.	32cc\K)	.
8CJ 8CC\	(16.b\	.
.	32cc\JJk)	.
=59	=59	=59
*	*^	*
8FL 8FF\	(<16.dd/LL	4a\	.
.	32ee/K	.	.
8dJ 8A 8F\	16.ff/	.	.
.	32dd/JJk)	.	.
8GL 8GG\	(<16.b/LL	4f\	.
.	32cc/K	.	.
8BJ 8G 8F\	16.dd/	.	.
.	32b/JJk)	.	.
*	*v	*v	*
=60	=60	=60
8cL 8G 8C\	8ccL 8e\	.
8cJ 8G 8C\	8eeJ 8g\	.
4c 4G 4C\	4cc 4e\	.
!!LO:PB:g=original
==61	==61	==61
*>F	*>F	*>F
*M2/4	*M2/4	*
!	!LO:TX:a:B:t=VAR.3.	!
!	!LO:TX:a:t=Brillante	!LO:DY:b:rj
8G 8GG\	(16.bLL 16.g\	p
.	32ccK 32a\)	.
8r	(16.dd 16.b\	.
.	32eeJJk 32cc\)	.
8f 8B 8G\	(16.ffLL 16.dd\	.
.	32ggK 32ee\)	.
8r	(16.aa 16.ff\	.
.	32bbJJk 32gg\)	.
=62	=62	=62
.	(<8qee/	.
8C 8CC/	(16.eeeLL 16.ccc\)	.
.	32dddK 32bb\)	.
8r	(16.ccc 16.aa\	.
.	32bbJJk 32gg\)	.
8e 8c 8G\	(16.aaLL 16.ff\	.
.	32ggK 32ee\)	.
8r	(16.ff 16.dd\	.
.	32eeJJk 32cc\)	.
=63	=63	=63
.	(<8qb/	.
8GG/	(16.dddLL 16.ff\)	.
.	32cccK 32ee\)	.
8r	(16.bb 16.dd\	.
.	32aaJJk 32cc\)	.
8B 8G\	(16.ggLL 16.b\	.
.	32ffK 32a\)	.
8r	(16.ee 16.g\	.
.	32ddJJk 32f\)	.
!!LO:LB:g=original
=64	=64	=64
4c 4G 4E 4C\	(16.ccLL 16.e\	.
.	32ggK 32ee\)	.
.	(16.ff#X 16.dd#X\	.
.	32ggJJk 32ee\)	.
!	!	!LO:HP:b=2
(16.a\LL	(16.ffnLL 16.cc\	>
32g\K)	32eeK 32cc\)	.
(16.f\	(16.ddn 16.b\	.
32e\JJk)	32ccJJk 32g\)	]
=65	=65	=65
8G 8GG\	(16.bLL 16.g\	.
.	32ccK 32a\)	.
8r	(16.dd 16.b\	.
.	32eeJJk 32cc\)	.
8f 8B 8G\	(16.ffLL 16.dd\	.
.	32ggK 32ee\)	.
8r	(16.aa 16.ff\	.
.	32bbJJk 32gg\)	.
=66	=66	=66
.	(<8qee/	.
8C 8CC/	(16.eeeLL 16.ccc\)	.
.	32dddK 32bb\)	.
8r	(16.ccc 16.aa\	.
.	32bbJJk 32gg\)	.
8e 8c 8G\	(16.aaLL 16.ff\	.
.	32ggK 32ee\)	.
8r	(16.ff 16.dd\	.
.	32eeJJk 32cc\)	.
!!LO:LB:g=original
=67	=67	=67
.	(<8qb/	.
8GG/	(16.dddLL 16.ff\)	.
.	32cccK 32ee\)	.
8r	(16.bb 16.dd\	.
.	32aaJJk 32cc\)	.
8B 8G\	(16.ggLL 16.b\	.
.	32ffK 32a\)	.
8r	(16.ee 16.g\	.
.	32ddJJk 32f\)	.
=68	=68	=68
8cL 8G 8C\	8ccL 8e\	.
8cJ 8G 8C\	8eeJ 8g\	.
4c 4G 4C\	4cc 4e\	.
=69:|!	=69:|!	=69:|!
*>G	*>G	*>G
8C 8CC/	(16.aa\LL	.
.	32ccc\K)	.
8r	(16.bb\	.
.	32ccc\JJk)	.
8f 8c 8A\	(16.ddd\LL	.
.	32ccc\K)	.
8r	(16.bb\	.
.	32aa\JJk)	.
!!LO:LB:g=original
=70	=70	=70
.	(<8qgg/	.
8C 8CC/	(16.cccLL 16.ee\)	.
.	32bbK 32dd\)	.
8r	(16.aa 16.cc\	.
.	32ggJJk 32b\)	.
8e 8c 8G\	(16.ffLL 16.a\	.
.	32eeK 32g\)	.
8r	(16.dd 16.f\	.
.	32ccJJk 32e\)	.
=71	=71	=71
8GG/	(16.bLL 16.g\	.
.	32ccK 32a\)	.
8r	(16.dd 16.b\	.
.	32eeJJk 32cc\)	.
8f 8B 8G\	(16.ffLL 16.dd\	.
.	32ggK 32ee\)	.
8r	(16.aa 16.ff\	.
.	32bbJJk 32dd\)	.
=72	=72	=72
8C/	(16.cccLL 16.ee\	.
.	32bb\K)	.
8r	(16.aa\	.
.	32gg\JJk)	.
8e 8c 8G\	(16.ff\LL	.
.	32ee\K)	.
8r	(16.dd\	.
.	32cc\JJk)	.
!!LO:LB:g=original
=73	=73	=73
8C 8CC/	(16.aa\LL	.
.	32ccc\K)	.
8r	(16.bb\	.
.	32ccc\JJk)	.
8f 8c 8A\	(16.ddd\LL	.
.	32ccc\K)	.
8r	(16.bb\	.
.	32aa\JJk)	.
=74	=74	=74
.	(<8qgg/	.
8C 8CC/	(16.cccLL 16.ee\)	.
.	32bbK 32dd\)	.
8r	(16.aa 16.cc\	.
.	32ggJJk 32b\)	.
8e 8c 8G\	(16.ffLL 16.a\	.
.	32eeK 32g\)	.
8r	(16.dd 16.f\	.
.	32ccJJk 32e\)	.
=75	=75	=75
8G 8GG/	(16.b\LL	.
.	32a\K)	.
8r	(16.b\	.
.	32cc\JJk)	.
8f 8B 8G\	(16.dd\LL	.
.	32ee\K)	.
8r	(16.ff\	.
.	32dd\JJk)	.
=76	=76	=76
8e`L 8c\	8cc`\L	.
8cJ 8G 8C\	8eeeJ 8gg 8ee\	.
4c 4G 4C\	4ccc 4ee 4cc\	.
!!LO:PB:g=original
==77	==77	==77
*M2/4	*M2/4	*
!	!LO:TX:a:B:t=CODA	!
!	!LO:TX:a:t=Più lento	!LO:DY:b:rj
8CL 8CC/	8c`/	p
8C 8CC/	(32e/LLL	.
.	32c'/)	.
.	32c'/	.
.	32c'/JJJ	.
8C 8CC/	(32e/LLL	.
.	32c'/)	.
.	32c'/	.
.	32c'/JJJ	.
8CJ 8CC/	(32e/LLL	.
.	32c'/)	.
.	32c'/	.
.	32c'/JJJ	.
=78	=78	=78
8CL 8CC/	8e`/	.
8C 8CC/	(32g 32e/LLL	.
.	32c'/)	.
.	32c'/	.
.	32c'/JJJ	.
8C 8CC/	(32g 32e/LLL	.
.	32c'/)	.
.	32c'/	.
.	32c'/JJJ	.
8CJ 8CC/	(32g 32e/LLL	.
.	32c'/)	.
.	32c'/	.
.	32c'/JJJ	.
!!LO:LB:g=original
=79	=79	=79
!	!LO:TX:b:t=cres-cen-do:ext=ut:problem:text with extention lines	!
8CL 8GG 8CC/	8g` 8e/	<
8C 8GG 8CC/	(32ccLLL 32e/	.
.	32g'/)	.
.	32g'/	.
.	32g'/JJJ	.
8C 8GG 8CC/	(32ccLLL 32e/	.
.	32g'/)	.
.	32g'/	.
.	32g'/JJJ	.
8CJ 8GG 8CC/	(32ccLLL 32e/	.
.	32g'/)	.
.	32g'/	.
.	32g'/JJJ	.
=80	=80	=80
8CL 8GG 8CC/	8cc` 8e\	.
8C 8GG 8CC/	(32eeLLL 32g\	.
.	32cc'\)	.
.	32cc'\	.
.	32cc'\JJJ	.
8C 8GG 8CC/	(32eeLLL 32g\	.
.	32cc'\)	.
.	32cc'\	.
.	32cc'\JJJ	.
8CJ 8GG 8CC/	(32eeLLL 32g\	.
.	32cc'\)	.
.	32cc'\	.
.	32cc'\JJJ	.
=81	=81	=81
16CLL 16CC/	8ee` 8g\	.
16GG/	.	.
16C 16CC/	(32ggLLL 32ee\	.
.	32cc'\)	.
16GG/JJ	32cc'\	.
.	32cc'\JJJ	.
16CLL 16CC/	(32ggLLL 32ee\	.
.	32cc'\)	.
16GG/	32cc'\	.
.	32cc'\JJJ	.
16C 16CC/	(32ggLLL 32ee\	.
.	32cc'\)	.
16GG/JJ	32cc'\	.
.	32cc'\JJJ	.
!!LO:LB:g=original
=82	=82	=82
16CLL 16CC/	8gg` 8ee\	.
16GG/	.	.
16C 16CC/	(32cccLLL 32ee\	.
.	32gg'\)	.
16GG/JJ	32gg'\	.
.	32gg'\JJJ	.
16CLL 16CC/	(32cccLLL 32ee\	.
.	32gg'\)	.
16GG/	32gg'\	.
.	32gg'\JJJ	.
16C 16CC/	(32cccLLL 32ee\	.
.	32gg'\)	[
16GG/JJ	32gg'\	.
.	32gg'\JJJ	.
=83	=83	=83
!	!	!LO:DY:b:rj
(16C`LL 16CC/	16eeeLL 16ccc 16gg 16ee\	ff
16E/	32eeeL 32ccc 32gg 32ee\	.
.	32eeeJ 32ccc 32gg 32ee\	.
16G/	16eee 16ccc 16gg 16ee\	.
16c/JJ)	16eeeJJ 16ccc 16gg 16ee\	.
(16F`LL 16FF/	16dddLL 16aa 16ff\	.
16AA/	16ddd 16aa 16ff\	.
16D/	16ddd 16aa 16ff\	.
16F/JJ)	16dddJJ 16aa 16ff\	.
=84	=84	=84
(16GG/LL	16cccLL 16gg 16ee\	.
16C/	32cccL 32gg 32ee\	.
.	32cccJ 32gg 32ee\	.
16E/	16ccc 16gg 16ee\	.
16G/JJ)	16cccJJ 16gg 16ee\	.
(16GG/LL	16bbLL 16gg 16ff\	.
16BB/	16bb 16gg 16ff\	.
16D/	16bb 16gg 16ff\	.
16G/JJ)	16bbJJ 16gg 16ff\	.
!!LO:LB:g=original
=85	=85	=85
(8.C^\L	16cccLL 16ee\	.
.	16eee 16gg\	.
.	16ddd 16ff\	.
16E\Jk	16cccJJ 16ee\	.
8G\L)	16bbLL 16dd\	.
.	16ccc 16ee\	.
8GG\J	16ddd 16ff\	.
.	16bbJJ 16dd\	.
=86	=86	=86
(8.C^\L	16cccLL 16ee\	.
.	16eee 16gg\	.
.	16ddd 16ff\	.
16E\Jk	16cccJJ 16ee\	.
8G\L)	16bbLL 16dd\	.
.	16ccc 16ee\	.
8GG\J	16ddd 16ff\	.
.	16bbJJ 16dd\	.
=87	=87	=87
(8.C^\L	16cccLL 16ee\	.
.	16eee 16gg\	.
.	16ddd 16ff\	.
16E\Jk	16cccJJ 16ee\	.
8G\L)	16bbLL 16dd\	.
.	16ccc 16ee\	.
8GG\J	16ddd 16ff\	.
.	16bbJJ 16dd\	.
=88	=88	=88
4C\	4ccc 4ee\	.
!	!LO:TX:t=P:problem:^ pod główką nuty	!
(16C^^\LL	(16c^^/LL	.
32D\L	32d/L	.
32E\JJJ	32e/JJJ	.
32F\LLL	32f/LLL	.
32G\	32g/	.
32A\	32a/	.
32B\JJJ)	32b/JJJ)	.
!!LO:LB:g=original
=89	=89	=89
4c\	4cc\	.
8cL 8G 8E 8C\	8cccL 8gg 8ee 8cc\	.
8cJ 8G 8E 8C\	8cccJ 8gg 8ee 8cc\	.
=90	=90	=90
4c 4G 4E 4C\	4ccc 4gg 4ee 4cc\	.
4r	4r	.
=91	=91	=91
4c 4C\	4ccc 4gg 4ee 4cc\	.
4r	4r	.
=92	=92	=92
4G 4GG\	4ccc 4gg 4ee 4cc\	.
4r	4r	.
=93	=93	=93
4E 4EE/	4ccc 4gg 4ee 4cc\	.
4r	4r	.
=94	=94	=94
2C 2CC/	2ccc 2gg 2ee 2cc\	.
==	==	==
*-	*-	*-
!!!system-decoration: {(s1,s2)}
!!!RDF**kern: > = above
!!!RDF**kern: < = below
!!!RDF**dynam: > = "dim.", fontstyle= "italic"
!!!ENC: Berenika Jozajtis
!!!END: 2022-11-27
!!!ENC: Katarzyna Serwa
!!!END: 2022-12-07
!!!YEC: Copyright 2022 Narodowy Instytut Fryderyka Chopina (https://polishscores.org)
!!!YEM: License CC-BY-4.0 (https://creativecommons.org/licenses/by/4.0)
